packages/icons/src/gcr-rollback-light.svg

<svg width="32" height="32" viewBox="0 0 32 32" fill="none" xmlns="http://www.w3.org/2000/svg">
<path fill-rule="evenodd" clip-rule="evenodd" d="M14.0246 4.61807C14.2182 4.81491 14.2157 5.13148 14.0188 5.32516L11.8179 7.49067H26.0596C26.888 7.49067 27.5596 8.16224 27.5596 8.99067V18.4893C27.5596 18.7655 27.3357 18.9893 27.0596 18.9893C26.7834 18.9893 26.5596 18.7655 26.5596 18.4893V8.99067C26.5596 8.71453 26.3357 8.49067 26.0596 8.49067H11.8179L14.0188 10.6562C14.2157 10.8499 14.2182 11.1664 14.0246 11.3633C13.8309 11.5601 13.5143 11.5627 13.3175 11.369L10.2462 8.34708C10.1507 8.25309 10.0969 8.12468 10.0969 7.99067C10.0969 7.85666 10.1507 7.72826 10.2462 7.63427L13.3175 4.61234C13.5143 4.41867 13.8309 4.42124 14.0246 4.61807ZM4.94775 13.4309C5.2239 13.4309 5.44775 13.6547 5.44775 13.9309V25.8905C5.44775 26.1667 5.67161 26.3905 5.94775 26.3905H18.2583C18.5344 26.3905 18.7583 26.6144 18.7583 26.8905C18.7583 27.1667 18.5344 27.3905 18.2583 27.3905H5.94775C5.11933 27.3905 4.44775 26.719 4.44775 25.8905V13.9309C4.44775 13.6547 4.67161 13.4309 4.94775 13.4309Z" fill="white"/>
<g clip-path="url(#clip0_3965_2138)">
<path d="M24.2312 21.55C23.8875 21.55 23.5609 21.7563 23.389 22.0485L21.1375 25.9844C20.9656 26.2938 20.9656 26.6547 21.1375 26.9641L23.389 30.9172C23.5609 31.2266 23.8875 31.4329 24.2312 31.4329H28.7515C29.1125 31.4157 29.4218 31.2266 29.5937 30.9172L31.8453 26.9813C31.9484 26.8438 32 26.6719 32 26.5C32 26.3282 31.9484 26.1563 31.8625 26.0016L29.6109 22.0657C29.439 21.7563 29.1125 21.5672 28.7687 21.5672H24.2312V21.55Z" fill="white"/>
<path d="M31.1578 28.2188L29.6109 30.9172C29.4391 31.2266 29.1125 31.4328 28.7688 31.4328H27.05L24.5234 28.9062L25.2625 26.5172L24.5234 24.0938L25.2797 24.6094L26.3109 25.6406L25.8297 24.0938L29.4047 26.5L31.1578 28.2188Z" fill="#D7DFED"/>
<path d="M24.5234 24.1108L25.2797 24.6265L25.8812 26.5515L25.2969 28.3905L24.5234 28.9062L25.2625 26.5171L24.5234 24.1108ZM26.4656 24.953L26.8438 26.1562H28.2531L26.4656 24.953ZM29.4219 26.5171L25.8297 28.9062L26.5688 26.5171L25.8297 24.1108L29.4219 26.5171Z" fill="black" fill-opacity="0.07"/>
</g>
<defs>
<clipPath id="clip0_3965_2138">
<rect width="11" height="11" fill="white" transform="translate(21 21)"/>
</clipPath>
</defs>
</svg>

<svg viewBox="0 0 32 32" fill="none" xmlns="http://www.w3.org/2000/svg"><path fill-rule="evenodd" clip-rule="evenodd" d="M14.025 4.618a.5.5 0 0 1-.006.707l-2.201 2.166H26.06a1.5 1.5 0 0 1 1.5 1.5v9.498a.5.5 0 1 1-1 0V8.991a.5.5 0 0 0-.5-.5H11.818l2.2 2.165a.5.5 0 1 1-.7.713l-3.072-3.022a.5.5 0 0 1 0-.713l3.072-3.022a.5.5 0 0 1 .707.006Zm-9.077 8.813a.5.5 0 0 1 .5.5v11.96a.5.5 0 0 0 .5.5h12.31a.5.5 0 0 1 0 1H5.948a1.5 1.5 0 0 1-1.5-1.5V13.93a.5.5 0 0 1 .5-.5Z" fill="#fff"/><g clip-path="url(#a)"><path d="M24.231 21.55c-.344 0-.67.206-.842.498l-2.252 3.936a.995.995 0 0 0 0 .98l2.252 3.953c.172.31.498.516.842.516h4.52a1 1 0 0 0 .843-.516l2.251-3.936A.804.804 0 0 0 32 26.5c0-.172-.052-.344-.137-.498l-2.252-3.936a.969.969 0 0 0-.842-.499H24.23v-.017Z" fill="#fff"/><path d="m31.158 28.219-1.547 2.698a.985.985 0 0 1-.842.516H27.05l-2.527-2.527.74-2.389-.74-2.423.757.515 1.03 1.032-.48-1.547 3.575 2.406 1.753 1.719Z" fill="#D7DFED"/><path d="m24.523 24.11.757.517.601 1.925-.584 1.838-.774.516.74-2.389-.74-2.406Zm1.943.843.378 1.203h1.41l-1.788-1.203Zm2.956 1.564-3.592 2.39.739-2.39-.74-2.406 3.593 2.406Z" fill="#000" fill-opacity=".07"/></g><defs><clipPath id="a"><path fill="#fff" transform="translate(21 21)" d="M0 0h11v11H0z"/></clipPath></defs></svg>
